packages/components/bolt-icons/src/svgs/product/services/vision.svg

<?xml version="1.0" encoding="UTF-8" standalone="no"?>
<svg width="32px" height="32px" viewBox="0 0 32 32" version="1.1" xmlns="http://www.w3.org/2000/svg" xmlns:xlink="http://www.w3.org/1999/xlink">
    <!-- Generator: Sketch 47.1 (45422) - http://www.bohemiancoding.com/sketch -->
    <title>Icon/How/Vision</title>
    <desc>Created with Sketch.</desc>
    <defs></defs>
    <g id="Symbols" stroke="none" stroke-width="1" fill="none" fill-rule="evenodd">
        <g id="Icon/How/Vision" fill="#1F2555">
            <path d="M22,16 C22,14.334 21.416,12.917 20.25,11.75 C19.084,10.584 17.666,10 16,10 C14.334,10 12.916,10.584 11.75,11.75 C10.584,12.917 10,14.334 10,16 C10,17.667 10.584,19.084 11.75,20.25 C12.916,21.417 14.334,22 16,22 C17.666,22 19.084,21.417 20.25,20.25 C21.416,19.084 22,17.667 22,16 M24,16 C24,18.209 23.219,20.094 21.656,21.656 C20.094,23.219 18.209,24 16,24 C13.791,24 11.906,23.219 10.344,21.656 C8.781,20.094 8,18.209 8,16 C8,13.792 8.781,11.906 10.344,10.344 C11.906,8.781 13.791,8 16,8 C18.209,8 20.094,8.781 21.656,10.344 C23.219,11.906 24,13.792 24,16 M24,22.5 C25.041,21.625 26.084,20.615 27.125,19.469 C28.166,18.323 28.865,17.531 29.219,17.094 C29.572,16.656 29.834,16.292 30,16 L29.25,15 C28.75,14.292 28.041,13.448 27.125,12.469 C26.209,11.49 25.188,10.511 24.063,9.531 C22.937,8.553 21.646,7.719 20.188,7.031 C18.729,6.344 17.334,6 16,6 C14.666,6 13.26,6.365 11.781,7.094 C10.303,7.823 9.041,8.625 8,9.5 C6.959,10.375 5.916,11.386 4.875,12.531 C3.834,13.678 3.135,14.469 2.781,14.906 C2.428,15.344 2.166,15.709 2,16 L2.75,17 C3.25,17.709 3.959,18.553 4.875,19.531 C5.791,20.511 6.812,21.49 7.937,22.469 C9.062,23.448 10.354,24.281 11.812,24.969 C13.271,25.656 14.666,26 16,26 C17.334,26 18.74,25.636 20.219,24.906 C21.697,24.178 22.959,23.375 24,22.5 M25.406,8.188 C26.594,9.229 27.76,10.438 28.906,11.813 C30.053,13.187 30.803,14.146 31.156,14.688 C31.51,15.229 31.791,15.667 32,16 L31.25,17.25 C30.709,18.084 29.928,19.084 28.906,20.25 C27.885,21.417 26.74,22.584 25.469,23.75 C24.197,24.917 22.709,25.917 21,26.75 C19.291,27.584 17.625,28 16,28 C14.375,28 12.697,27.563 10.969,26.688 C9.24,25.813 7.781,24.854 6.594,23.812 C5.406,22.771 4.24,21.562 3.094,20.187 C1.947,18.813 1.197,17.854 0.844,17.312 C0.49,16.771 0.209,16.334 0,16 L0.75,14.75 C1.291,13.917 2.072,12.917 3.094,11.75 C4.115,10.584 5.26,9.417 6.531,8.25 C7.803,7.084 9.291,6.084 11,5.25 C12.709,4.417 14.375,4 16,4 C17.625,4 19.303,4.437 21.031,5.312 C22.76,6.187 24.219,7.146 25.406,8.188" id="Page-1"></path>
        </g>
    </g>
</svg>

<svg id="ff153206-dda7-41cd-b44a-bec9ae798d91" data-name="Layer 1" xmlns="http://www.w3.org/2000/svg" viewBox="0 0 31.9 23.9"><title>vision</title><path id="a6c6d684-832c-4bfc-89f2-29a70ddbf3a7" data-name="Page-1" d="M22,16a5.45,5.45,0,0,0-1.8-4.2A5.45,5.45,0,0,0,16,10a5.45,5.45,0,0,0-4.2,1.8A5.45,5.45,0,0,0,10,16a5.45,5.45,0,0,0,1.8,4.2A5.76,5.76,0,0,0,16,22a5.6,5.6,0,0,0,4.2-1.8A5.45,5.45,0,0,0,22,16m2,0a8.06,8.06,0,0,1-13.7,5.7A8.06,8.06,0,0,1,21.7,10.3,8.1,8.1,0,0,1,24,16m0,6.5c1-.9,2.1-1.9,3.1-3s1.7-1.9,2.1-2.4A5.94,5.94,0,0,0,30,16l-.8-1a19.86,19.86,0,0,0-2.1-2.5A29.3,29.3,0,0,0,24,9.6a15.35,15.35,0,0,0-3.9-2.5,9.87,9.87,0,0,0-4.2-1,10.11,10.11,0,0,0-4.2,1.1A13.65,13.65,0,0,0,8,9.5c-1,.9-2.1,1.9-3.1,3s-1.7,1.9-2.1,2.4A5.94,5.94,0,0,0,2,16l.8,1a19.86,19.86,0,0,0,2.1,2.5A21.65,21.65,0,0,0,8,22.4a21.71,21.71,0,0,0,3.9,2.5,9.87,9.87,0,0,0,4.2,1,10.11,10.11,0,0,0,4.2-1.1A13.65,13.65,0,0,0,24,22.5M25.4,8.2a24,24,0,0,1,3.5,3.6,27.21,27.21,0,0,1,2.2,2.9,11.65,11.65,0,0,1,.8,1.3l-.8,1.2a30.6,30.6,0,0,1-2.3,3c-1,1.2-2.2,2.3-3.4,3.5a17.68,17.68,0,0,1-4.5,3,11.8,11.8,0,0,1-5,1.2,10.65,10.65,0,0,1-5-1.3,21,21,0,0,1-4.4-2.9A24,24,0,0,1,3,20.1,27.21,27.21,0,0,1,.8,17.2,11.65,11.65,0,0,1,0,15.9l.8-1.2a30.6,30.6,0,0,1,2.3-3c1-1.2,2.2-2.3,3.4-3.5a17.68,17.68,0,0,1,4.5-3A11.8,11.8,0,0,1,16,4a10.65,10.65,0,0,1,5,1.3,18.65,18.65,0,0,1,4.4,2.9" transform="translate(0 -4)" fill="#1f2555" fill-rule="evenodd"/></svg>
